neru-dark-classic/22x22/actions/folder-move.svg

<?xml version="1.0" encoding="UTF-8" standalone="no"?>
<svg xmlns="http://www.w3.org/2000/svg" width="22" height="22" id="svg2" version="1.1">
 <defs id="defs3">
  <style type="text/css" id="current-color-scheme">
   .ColorScheme-Text { color:#d3dae3; } .ColorScheme-Highlight { color:#5294e2; }
  </style>
 </defs>
 <path style="opacity:1;fill:currentColor;fill-opacity:1" class="ColorScheme-Text" d="M 4.6035156,4.0060797 C 4.4026226,4.0486749 4,4.2328248 4,4.9142828 l 0,8.1777342 c 0,0 5.58e-4,0.908203 0.7148438,0.908203 l 8.5703122,0 c 0,0 0.714844,4.07e-4 0.714844,-0.908203 L 14,6.9318609 C 14,6.0232504 13.285156,6.0002203 13.285156,6.0002203 l -3.285156,0 -2,-1.9941406 -3.2851562,0 c 0,0 -0.044364,-0.014175 -0.1113282,0 z" id="path4143"/>
 <path style="opacity:0.3;fill:currentColor;fill-opacity:1" class="ColorScheme-Text" d="m 15,10.00022 0,4.091797 c 0,0.90861 -0.714844,0.908203 -0.714844,0.908203 l -6.285156,0 0,2.091797 c 0,0 5.58e-4,0.908203 0.7148438,0.908203 l 8.5703122,0 c 0,0 0.714844,4.07e-4 0.714844,-0.908203 l 0,-6.160156 C 18,10.02325 17.285156,10.00022 17.285156,10.00022 l -2.285156,0 z" id="path4149"/>
</svg>

<svg xmlns="http://www.w3.org/2000/svg" width="22" height="22" id="svg2" version="1.1"><defs id="defs3"><style type="text/css" id="current-color-scheme">.ColorScheme-Text{color:#d3dae3}</style></defs><path class="ColorScheme-Text" d="M4.604 4.006C4.403 4.05 4 4.233 4 4.914v8.178S4 14 4.715 14h8.57S14 14 14 13.092v-6.16c0-.909-.715-.932-.715-.932H10L8 4.006H4.715s-.045-.014-.111 0z" id="path4143" opacity="1" fill="currentColor" fill-opacity="1"/><path class="ColorScheme-Text" d="M15 10v4.092c0 .909-.715.908-.715.908H8v2.092S8 18 8.715 18h8.57S18 18 18 17.092v-6.16c0-.909-.715-.932-.715-.932H15z" id="path4149" opacity=".3" fill="currentColor" fill-opacity="1"/></svg>
